svg/robot_angry_outline.svg

<svg xmlns="http://www.w3.org/2000/svg" viewBox="0 0 24 24"><path d="M22 14h-1c0-3.87-3.13-7-7-7h-1V5.73A2 2 0 1 0 10 4c0 .74.4 1.39 1 1.73V7h-1c-3.87 0-7 3.13-7 7H2c-.55 0-1 .45-1 1v3c0 .55.45 1 1 1h1v1a2 2 0 0 0 2 2h14c1.11 0 2-.89 2-2v-1h1c.55 0 1-.45 1-1v-3c0-.55-.45-1-1-1m-1 3h-2v3H5v-3H3v-1h2v-2c0-2.76 2.24-5 5-5h4c2.76 0 5 2.24 5 5v2h2zm-3.5-1.5c0 1.11-.89 2-2 2-.97 0-1.77-.69-1.96-1.6l2.96-2.12c.6.35 1 .98 1 1.72m-10-1.72 2.96 2.12c-.18.91-.99 1.6-1.96 1.6a2 2 0 0 1-2-2c0-.74.4-1.37 1-1.72"/></svg>

<?xml version="1.0" encoding="UTF-8"?><!DOCTYPE svg PUBLIC "-//W3C//DTD SVG 1.1//EN" "http://www.w3.org/Graphics/SVG/1.1/DTD/svg11.dtd"><svg xmlns="http://www.w3.org/2000/svg" xmlns:xlink="http://www.w3.org/1999/xlink" version="1.1" id="mdi-robot-angry-outline" width="24" height="24" viewBox="0 0 24 24"><path d="M22 14H21C21 10.13 17.87 7 14 7H13V5.73C13.6 5.39 14 4.74 14 4C14 2.9 13.11 2 12 2S10 2.9 10 4C10 4.74 10.4 5.39 11 5.73V7H10C6.13 7 3 10.13 3 14H2C1.45 14 1 14.45 1 15V18C1 18.55 1.45 19 2 19H3V20C3 21.11 3.9 22 5 22H19C20.11 22 21 21.11 21 20V19H22C22.55 19 23 18.55 23 18V15C23 14.45 22.55 14 22 14M21 17H19V20H5V17H3V16H5V14C5 11.24 7.24 9 10 9H14C16.76 9 19 11.24 19 14V16H21V17M17.5 15.5C17.5 16.61 16.61 17.5 15.5 17.5C14.53 17.5 13.73 16.81 13.54 15.9L16.5 13.78C17.1 14.13 17.5 14.76 17.5 15.5M7.5 13.78L10.46 15.9C10.28 16.81 9.47 17.5 8.5 17.5C7.4 17.5 6.5 16.61 6.5 15.5C6.5 14.76 6.9 14.13 7.5 13.78Z" /></svg>
